www/static/icons/mdx.svg

<svg width="50" height="50" viewBox="0 0 50 50" fill="none" xmlns="http://www.w3.org/2000/svg">
<rect width="50" height="50" rx="6" fill="#FAF9FB"/>
<path d="M26.6222 18.3612L26.6221 26.9942L29.7932 23.8237L31.3938 25.4245L25.5322 31.2856L19.5967 25.3501L21.1974 23.7494L24.3584 26.9104L24.3585 18.3612H26.6222Z" fill="black"/>
<path d="M8.2637 30.8462V24.1604L12.3572 28.2542L16.4817 24.1299V30.7787H18.7454V18.6652L12.3573 25.0528L6 18.6951V30.8462H8.2637Z" fill="black"/>
<path d="M42.3995 18L44.0001 19.6007L39.2055 24.3951L43.8526 29.0423L42.2519 30.643L37.6047 25.9959L32.9574 30.643L31.3567 29.0423L36.0035 24.3951L31.2092 19.6007L32.8099 18L37.6047 22.7943L42.3995 18Z" fill="#F9AC00"/>
</svg>

<svg width="50" height="50" fill="none" xmlns="http://www.w3.org/2000/svg"><rect width="50" height="50" rx="6" fill="#FAF9FB"/><path d="M26.622 18.361v8.633l3.171-3.17 1.6 1.6-5.86 5.862-5.936-5.936 1.6-1.6 3.161 3.16v-8.549h2.264zM8.264 30.846V24.16l4.093 4.094 4.125-4.124v6.649h2.263V18.665l-6.388 6.388L6 18.695v12.151h2.264z" fill="#000"/><path d="M42.4 18l1.6 1.6-4.794 4.795 4.647 4.647-1.601 1.601-4.647-4.647-4.648 4.647-1.6-1.6 4.647-4.648-4.795-4.794L32.81 18l4.796 4.794L42.4 18z" fill="#F9AC00"/></svg>
